public/build/img/add.svg

<?xml version="1.0" encoding="utf-8"?><!-- Uploaded to: SVG Repo, www.svgrepo.com, Generator: SVG Repo Mixer Tools -->
<svg width="800px" height="800px" viewBox="0 0 24 24" fill="none" xmlns="http://www.w3.org/2000/svg">
<path d="M11 8C11 7.44772 11.4477 7 12 7C12.5523 7 13 7.44772 13 8V11H16C16.5523 11 17 11.4477 17 12C17 12.5523 16.5523 13 16 13H13V16C13 16.5523 12.5523 17 12 17C11.4477 17 11 16.5523 11 16V13H8C7.44771 13 7 12.5523 7 12C7 11.4477 7.44772 11 8 11H11V8Z" fill="#fff"/>
<path fill-rule="evenodd" clip-rule="evenodd" d="M23 12C23 18.0751 18.0751 23 12 23C5.92487 23 1 18.0751 1 12C1 5.92487 5.92487 1 12 1C18.0751 1 23 5.92487 23 12ZM3.00683 12C3.00683 16.9668 7.03321 20.9932 12 20.9932C16.9668 20.9932 20.9932 16.9668 20.9932 12C20.9932 7.03321 16.9668 3.00683 12 3.00683C7.03321 3.00683 3.00683 7.03321 3.00683 12Z" fill="#fff"/>
</svg>

<svg width="800" height="800" viewBox="0 0 24 24" fill="none" xmlns="http://www.w3.org/2000/svg"><path d="M11 8a1 1 0 112 0v3h3a1 1 0 110 2h-3v3a1 1 0 11-2 0v-3H8a1 1 0 110-2h3V8z" fill="#fff"/><path fill-rule="evenodd" clip-rule="evenodd" d="M23 12c0 6.075-4.925 11-11 11S1 18.075 1 12 5.925 1 12 1s11 4.925 11 11zM3.007 12a8.993 8.993 0 1017.986 0 8.993 8.993 0 00-17.986 0z" fill="#fff"/></svg>
